images/win.svg

<?xml version="1.0" encoding="UTF-8" standalone="no"?>
<!-- Created with Inkscape (http://www.inkscape.org/) -->

<svg
   width="16"
   height="16"
   viewBox="0 0 16 16.000001"
   version="1.1"
   id="svg1"
   inkscape:version="1.3 (0e150ed6c4, 2023-07-21)"
   xml:space="preserve"
   sodipodi:docname="win.svg"
   xmlns:inkscape="http://www.inkscape.org/namespaces/inkscape"
   xmlns:sodipodi="http://sodipodi.sourceforge.net/DTD/sodipodi-0.dtd"
   xmlns="http://www.w3.org/2000/svg"
   xmlns:svg="http://www.w3.org/2000/svg"
   xmlns:rdf="http://www.w3.org/1999/02/22-rdf-syntax-ns#"
   xmlns:cc="http://creativecommons.org/ns#"
   xmlns:dc="http://purl.org/dc/elements/1.1/"><title
     id="title1">Windowsill Logo</title><sodipodi:namedview
     id="namedview1"
     pagecolor="#505050"
     bordercolor="#ffffff"
     borderopacity="1"
     inkscape:showpageshadow="0"
     inkscape:pageopacity="0"
     inkscape:pagecheckerboard="1"
     inkscape:deskcolor="#505050"
     inkscape:document-units="px"
     showgrid="true"
     inkscape:zoom="22.627417"
     inkscape:cx="11.512582"
     inkscape:cy="9.6343299"
     inkscape:window-width="1287"
     inkscape:window-height="747"
     inkscape:window-x="-4"
     inkscape:window-y="-4"
     inkscape:window-maximized="1"
     inkscape:current-layer="layer1"><inkscape:grid
       id="grid1"
       units="px"
       originx="0"
       originy="0"
       spacingx="1"
       spacingy="1"
       empcolor="#0099e5"
       empopacity="0.30196078"
       color="#0099e5"
       opacity="0.05098039"
       empspacing="1"
       dotted="false"
       gridanglex="30"
       gridanglez="30"
       visible="true"
       snapvisiblegridlinesonly="false" /></sodipodi:namedview><defs
     id="defs1" /><g
     inkscape:label="Layer 1"
     inkscape:groupmode="layer"
     id="layer1"><path
       id="rect1-9-74"
       style="fill:#87ffe9;fill-opacity:1;stroke-width:0;stroke-linecap:square;stroke-linejoin:round;stroke-miterlimit:0;paint-order:markers fill stroke"
       inkscape:label="FlagTealEdge"
       d="M 4,6.9999998 H 6 V 8.9999996 H 4 Z M 3,7.9999997 H 4 V 8.9999996 H 3 Z M 0,5.9999999 H 1 V 7.9999997 H 0 Z M 2,6.9999998 H 3 V 8.9999996 H 2 Z" /><path
       id="rect1-7"
       style="fill:#e98bf9;stroke-width:0;stroke-linecap:square;stroke-linejoin:round;stroke-miterlimit:0;paint-order:markers fill stroke"
       d="m 4,10 h 2 v 2 H 4 Z m -1,1 h 1 v 1 H 3 Z M 2,10 h 1 v 2 H 2 Z M 0,9 h 1 v 2 H 0 Z"
       inkscape:label="FlagPinkEdge" /><path
       id="rect1-5-7"
       style="fill:#ea76f7;fill-opacity:1;stroke-width:0;stroke-linecap:square;stroke-linejoin:round;stroke-miterlimit:0;paint-order:markers fill stroke"
       d="m 13,8 h -1 v 3 h 1 z m 1,0.999999 h -1 v 3 h 1 z"
       inkscape:label="FlagPink2" /><path
       id="rect1-5"
       style="fill:#e98bf9;stroke-width:0;stroke-linecap:square;stroke-linejoin:round;stroke-miterlimit:0;paint-order:markers fill stroke"
       d="m 9,8 h 1 v 3 H 9 Z M 8,8.999999 h 1 v 3 H 8 Z"
       inkscape:label="FlagPink1" /><path
       id="path1"
       style="fill:#00e1fa;fill-opacity:1;stroke-width:0;stroke-linecap:square;stroke-linejoin:round;stroke-miterlimit:0;paint-order:markers fill stroke"
       d="m 13,3.0000003 h -1 v 3 h 1 z m 1,0.999999 h -1 v 3 h 1 z"
       inkscape:label="FlagTeal2" /><path
       id="rect1-5-8"
       style="fill:#87ffe9;fill-opacity:1;stroke-width:0;stroke-linecap:square;stroke-linejoin:round;stroke-miterlimit:0;paint-order:markers fill stroke"
       d="m 9,2.9999999 h 1 v 3 H 9 Z m -1,0.999999 h 1 v 3 H 8 Z"
       inkscape:label="FlagTeal1" /><path
       id="rect1-0-0"
       style="fill:#020202;fill-opacity:1;stroke-width:0;stroke-linecap:square;stroke-linejoin:round;stroke-miterlimit:0;paint-order:markers fill stroke"
       inkscape:label="FlagMain"
       d="m 3,14 h 1 v 1 H 3 Z m 1,-1 h 2 v 2 H 4 Z m -2,0 h 1 v 2 H 2 Z M 10,0.99999994 h 2 V 12.999999 H 10 Z M 9,6 h 1 V 7.9999993 H 9 Z m 0,5 h 1 v 1.999999 H 9 Z M 8,6.9999995 H 9 V 8.9999998 H 8 Z m 0,4.9999995 h 1 v 2 H 8 Z M 7,2.0000005 H 8 V 14 H 7 Z M 6,3.0000002 H 7 V 14.999999 H 6 Z M 3,4.9999995 H 4 V 5.9999992 H 3 Z M 4,4 H 6 V 5.9999998 H 4 Z M 2,4 H 3 V 5.9999998 H 2 Z M 15,3 h 1 V 14.999999 H 15 Z M 14,1.9999996 h 1 V 13.999999 H 14 Z M 13,2 h 1 V 3.9999993 H 13 Z M 12,0.99999994 h 1 V 2.9999992 H 12 Z M 13,12 h 1 v 1.999999 h -1 z m -1,-1 h 1 v 1.999999 h -1 z m 1,-4.0000005 h 1 V 8.9999988 H 13 Z M 8,2.0000002 H 9 V 3.9999995 H 8 Z M 9,1.0000006 h 1 V 2.9999999 H 9 Z M 12,6 h 1 V 7.9999993 H 12 Z M 0,12 h 1 v 2 H 0 Z M 0,3 H 1 V 4.9999998 H 0 Z" /></g><metadata
     id="metadata1"><rdf:RDF><cc:Work
         rdf:about=""><dc:title>Windowsill Logo</dc:title></cc:Work></rdf:RDF></metadata></svg>

<?xml version="1.0" encoding="UTF-8"?>
<svg width="16" height="16" version="1.1" viewBox="0 0 16 16" xmlns="http://www.w3.org/2000/svg"><title>Windowsill Logo</title><path d="m4 7h2v2h-2zm-1 1h1v1h-1zm-3-2h1v2h-1zm2 1h1v2h-1z" fill="#87ffe9" /><path d="m4 10h2v2h-2zm-1 1h1v1h-1zm-1-1h1v2h-1zm-2-1h1v2h-1z" fill="#e98bf9" /><path d="m13 8h-1v3h1zm1 1h-1v3h1z" fill="#ea76f7" /><path d="m9 8h1v3h-1zm-1 1h1v3h-1z" fill="#e98bf9" /><path d="m13 3h-1v3h1zm1 1h-1v3h1z" fill="#00e1fa" /><path d="m9 3h1v3h-1zm-1 1h1v3h-1z" fill="#87ffe9" /><path d="m3 14h1v1h-1zm1-1h2v2h-2zm-2 0h1v2h-1zm8-12h2v12h-2zm-1 5h1v2h-1zm0 5h1v2h-1zm-1-4h1v2h-1zm0 5h1v2h-1zm-1-10h1v12h-1zm-1 1h1v12h-1zm-3 2h1v1h-1zm1-1h2v2h-2zm-2 0h1v2h-1zm13-1h1v12h-1zm-1-1h1v12h-1zm-1 4e-7h1v2h-1zm-1-1h1v2h-1zm1 11h1v2h-1zm-1-1h1v2h-1zm1-4h1v2h-1zm-5-5h1v2h-1zm1-1h1v2h-1zm3 5h1v2h-1zm-12 6h1v2h-1zm0-9h1v2h-1z" fill="#020202" /></svg>
